X:17
T:
S:Efter Elisabet Olofsdotter, Flors i Burs.
M:2/4
L:1/8
K:F
c|c A d c|(cA) F A|c A d> c|c3:|
w:U flik-kän gikk i äŋ--ŋä u skud-dä skä-rä stra,
c|c> B A> c|g c Hc c|f> e d c|B d HG> B|
w:ti hän-nä komm n uŋŋ ʃö-man A-håj ja ja en uŋŋ ʃö-man u
A> B (c/d/) e|f3|]
w:bad na håi--rä pa.